X:1
T:Cassell, 87.87 D
T:Cassell, 87.87 D
T:Christen-Schatz (Basel, Switzerlan
T:Public Domain Courtesy of the Cyber Hymnal™
C:Christen-Schatz (Basel, Switzerlan
Z:Public Domain
Z:Courtesy of the Cyber Hymnal™
%%score ( 1 2 ) ( 3 4 )
L:1/8
Q:1/4=112
M:4/4
K:G
V:1 treble 
V:2 treble 
V:3 bass 
V:4 bass 
V:1
 [DG]2 [FA]2 [GB]2 [Gd]2 | c2 [GB]2 [GA]2 [FA]2 | [GB]2 [FA]2 [EG]2 [EA]2 | [DG]2 [DF]2 [DG]4 | %4
 [DG]2 [FA]2 [GB]2 [Gd]2 | c2 [GB]2 [GA]2 [FA]2 | [GB]2 [FA]2 [EG]2 [EA]2 | [DG]2 [DF]2 [DG]4 | %8
 [DF]2 [DG]2 [^CA]2 [DA]2 | [DA]2 (GF) [DE]2 [^CE]2 | [DF]2 [DG]2 [FA]2 [GB]2 | [Ac]2 [GB]2 [FA]4 | %12
 [EG]2 [FA]2 [GB]2 [Gd]2 | c2 [GB]2 [GA]2 [FA]2 | [GB]2 [FA]2 [EG]2 [EA]2 | [DG]2 [DF]2 [DG]4 |] %16
V:2
 x8 | (GF) x6 | x8 | x8 | x8 | (GF) x6 | x8 | x8 | x8 | x2 D2 x4 | x8 | x8 | x8 | (GF) x6 | x8 | %15
 x8 |] %16
V:3
 [G,,B,]2 [D,D]2 [G,D]2 [G,,B,]2 | [A,,C]2 D2 [D,D]2 [D,D]2 | [G,,D]2 (DC) [E,B,]2 [C,C]2 | %3
 [D,B,]2 (A,C) [G,,B,]4 | [G,,B,]2 [D,D]2 [G,D]2 [G,,B,]2 | [A,,C]2 D2 [D,D]2 [D,D]2 | %6
 [G,,D]2 (DC) [E,B,]2 [C,C]2 | [D,B,]2 (A,C) [G,,B,]4 | A,2 [B,,G,]2 [A,,E,]2 [D,F,]2 | %9
 [F,,A,]2 (B,D) [A,,A,]2 [A,,A,]2 | [D,A,]2 [B,,G,]2 [A,,C]2 [G,,D]2 | [F,,D]2 [G,,D]2 [D,D]4 | %12
 [E,B,]2 [D,D]2 [G,D]2 [G,,B,]2 | [A,,C]2 D2 [D,D]2 [D,D]2 | [G,,D]2 (DC) [E,B,]2 [C,C]2 | %15
 [D,B,]2 (A,C) [G,,B,]4 |] %16
V:4
 x8 | x2 (B,,C,) x4 | x2 D,2 x4 | x2 D,2 x4 | x8 | x2 (B,,C,) x4 | x2 D,2 x4 | x2 D,2 x4 | %8
 (D,C,) x6 | x2 G,,2 x4 | x8 | x8 | x8 | x2 (B,,C,) x4 | x2 D,2 x4 | x2 D,2 x4 |] %16

